; HEADER_BLOCK_START
; generated by Creality_Print V7.1.0.4414 on 2026-04-30 at 13:05:30
; total layer number: 144
; filament_density: 1.27
; filament_diameter: 1.75
; max_z_height: 22.00
; creality_uuid: 34bc5b9f-ef71-48d9-9e4e-9c63af36c7c0
; HEADER_BLOCK_END

; MINX = 114.38
; MINY = 135.00
; MINZ = 0.00
; MAXX = 185.62
; MAXY = 165.00
; MAXZ = 22.00

; multicolor_method = 0 
; THUMBNAIL_BLOCK_START

;
; THUMBNAIL_BLOCK_END

; THUMBNAIL_BLOCK_START

;
; THUMBNAIL_BLOCK_END

; external perimeters extrusion width = 0.42mm
; perimeters extrusion width = 0.45mm
; infill extrusion width = 0.45mm
; solid infill extrusion width = 0.42mm
; top infill extrusion width = 0.42mm
; support material extrusion width = 0.42mm
; first layer extrusion width = 0.50mm

; EXECUTABLE_BLOCK_START
EXCLUDE_OBJECT_DEFINE NAME=suportebarra2.STL_id_0_copy_0 CENTER=150,150 POLYGON=[[114.376,139.312],[114.395,139.078],[114.45,138.849],[114.54,138.631],[114.663,138.431],[114.816,138.252],[114.995,138.099],[115.195,137.976],[115.413,137.886],[125.481,135.073],[125.71,135.018],[125.944,135],[172.944,135],[173.179,135.018],[173.408,135.073],[184.587,138.163],[184.805,138.253],[185.005,138.376],[185.184,138.529],[185.337,138.708],[185.46,138.909],[185.55,139.126],[185.605,139.355],[185.624,139.589],[185.624,148.5],[185.605,148.735],[185.55,148.964],[185.46,149.181],[185.337,149.382],[174.158,164.382],[174.005,164.561],[173.826,164.714],[173.625,164.837],[173.408,164.927],[173.179,164.982],[172.944,165],[125.944,165],[125.71,164.982],[125.481,164.927],[125.263,164.837],[125.063,164.714],[124.884,164.561],[124.731,164.382],[114.663,148.93],[114.54,148.73],[114.45,148.512],[114.395,148.283],[114.376,148.049],[114.376,139.312]]
M73 P0 R34
M106 S0
M106 P2 S0
; max_print_temp = 70,250
;TYPE:Custom
START_PRINT EXTRUDER_TEMP=250 BED_TEMP=70
T0
M204 S2000
M104 S250
G1 Z3 F600
M83
G92 E0
G1 Z1 F600
G90
G21
M83 ; use relative distances for extrusion
G1 E-1.2 F2400
G1 Z.2 F30000
M106 S0
;LAYER_CHANGE
;:0.2
;HEIGHT:0.2
;BEFORE_LAYER_CHANGE
;0.2
G92 E0
;TIME_ELAPSED:53.006413
;AFTER_LAYER_CHANGE
;0.2
;_SET_FAN_SPEED_CHANGING_LAYER
SET_VELOCITY_LIMIT ACCEL=1000 ACCEL_TO_DECEL=1000
SET_VELOCITY_LIMIT SQUARE_CORNER_VELOCITY=20
; OBJECT_ID: 71
; printing object suportebarra2.STL id:0 copy 0
EXCLUDE_OBJECT_START NAME=suportebarra2.STL_id_0_copy_0
G1 X137.553 Y169.201 Z.6 F30000
G1 Z.2
G1 E1.2 F2400
;TYPE:Support
;WIDTH:0.5
G1 F3600
G1 X127.922 Y169.201 E.34774
G1 X127.922 Y165.45 E.13543
G1 X137.553 Y165.45 E.34774
G1 X137.553 Y169.132 E.13296
G1 X128.333 Y168.156 F30000
G1 F3600
G1 X128.333 Y168.79 E.02287
G1 X128.67 Y168.79 E.01214
G1 X128.67 Y165.861 E.10573
G1 X129.177 Y165.861 E.01834
G1 X129.177 Y168.79 E.10573
G1 X129.685 Y168.79 E.01834
G1 X129.685 Y165.861 E.10573
G1 X130.193 Y165.861 E.01834
G1 X130.193 Y168.79 E.10573
G1 X130.701 Y168.79 E.01834
G1 X130.701 Y165.861 E.10573
G1 X131.209 Y165.861 E.01834
G1 X131.209 Y168.79 E.10573
G1 X131.717 Y168.79 E.01834
G1 X131.717 Y165.861 E.10573
G1 X132.225 Y165.861 E.01834
G1 X132.225 Y168.79 E.10573
G1 X132.733 Y168.79 E.01834
G1 X132.733 Y165.861 E.10573
G1 X133.24 Y165.861 E.01834
G1 X133.24 Y168.79 E.10573
G1 X133.748 Y168.79 E.01834
G1 X133.748 Y165.861 E.10573
G1 X134.256 Y165.861 E.01834
G1 X134.256 Y168.79 E.10573
G1 X134.764 Y168.79 E.01834
G1 X134.764 Y165.861 E.10573
G1 X135.272 Y165.861 E.01834
G1 X135.272 Y168.79 E.10573
G1 X135.78 Y168.79 E.01834
G1 X135.78 Y165.861 E.10573
G1 X136.288 Y165.861 E.01834
G1 X136.288 Y168.79 E.10573
G1 X136.795 Y168.79 E.01834
G1 X136.795 Y165.861 E.10573
G1 X137.142 Y165.861 E.0125
G1 X137.142 Y166.521 E.02381
G1 E-1.2 F2400
;WIPE_START
G1 F3600
G1 X137.142 Y165.861
G1 X136.795 Y165.861
G1 X136.795 Y166.856
;WIPE_END
G1 X144.292 Y168.289 Z.6 F30000
G1 X149.061 Y169.201 Z.6
G1 Z.2
G1 E1.2 F2400
G1 F3600
G1 X142.307 Y169.201 E.24386
G1 X142.307 Y165.45 E.13543
G1 X149.061 Y165.45 E.24386
G1 X149.061 Y169.132 E.13296
G1 X145.658 Y168.79 F30000
G1 F3600
G1 X145.937 Y168.79 E.01009
G1 X145.937 Y165.861 E.10573
G1 X146.445 Y165.861 E.01834
G1 X146.445 Y168.79 E.10573
G1 X146.953 Y168.79 E.01834
G1 X146.953 Y165.861 E.10573
G1 X147.461 Y165.861 E.01834
G1 X147.461 Y168.79 E.10573
G1 X147.969 Y168.79 E.01834
G1 X147.969 Y165.861 E.10573
G1 X148.65 Y165.861 E.0246
G1 X148.65 Y168.79 E.10573
G1 X148.197 Y168.79 E.01635
G1 X144.134 Y168.79 F30000
G1 F3600
G1 X144.413 Y168.79 E.01009
G1 X144.413 Y165.861 E.10573
G1 X144.921 Y165.861 E.01834
G1 X144.921 Y168.79 E.10573
G1 X145.429 Y168.79 E.01834
G1 X145.429 Y165.861 E.10573
G1 X145.709 Y165.861 E.01009
G1 X144.185 Y165.861 F30000
G1 F3600
G1 X143.906 Y165.861 E.01009
G1 X143.906 Y168.79 E.10573
G1 X143.398 Y168.79 E.01834
G1 X143.398 Y165.861 E.10573
G1 X142.719 Y165.861 E.02451
G1 X142.719 Y168.79 E.10573
G1 X143.169 Y168.79 E.01626
G1 E-1.2 F2400
;WIPE_START
G1 F3600
G1 X142.719 Y168.79
G1 X142.719 Y167.24
;WIPE_END
G1 X150.306 Y168.073 Z.6 F30000
G1 X160.57 Y169.201 Z.6
G1 Z.2
G1 E1.2 F2400
G1 F3600
G1 X153.816 Y169.201 E.24386
G1 X153.816 Y165.45 E.13543
G1 X160.57 Y165.45 E.24386
G1 X160.57 Y169.132 E.13296
G1 X157.339 Y168.79 F30000
G1 F3600
G1 X157.618 Y168.79 E.01009
G1 X157.618 Y165.861 E.10573
G1 X158.126 Y165.861 E.01834
G1 X158.126 Y168.79 E.10573
G1 X158.634 Y168.79 E.01834
G1 X158.634 Y165.861 E.10573
G1 X159.142 Y165.861 E.01834
G1 X159.142 Y168.79 E.10573
G1 X159.649 Y168.79 E.01834
G1 X159.649 Y165.861 E.10573
G1 X160.158 Y165.861 E.01837
G1 X160.158 Y168.79 E.10573
G1 X159.878 Y168.79 E.01012
G1 X155.815 Y168.79 F30000
G1 F3600
G1 X156.094 Y168.79 E.01009
G1 X156.094 Y165.861 E.10573
G1 X156.602 Y165.861 E.01834
G1 X156.602 Y168.79 E.10573
G1 X157.11 Y168.79 E.01834
G1 X157.11 Y165.861 E.10573
G1 X157.389 Y165.861 E.01009
G1 X154.227 Y168.137 F30000
G1 F3600
G1 X154.227 Y168.79 E.02355
G1 X154.571 Y168.79 E.01241
G1 X154.571 Y165.861 E.10573
G1 X155.079 Y165.861 E.01834
G1 X155.079 Y168.79 E.10573
G1 X155.587 Y168.79 E.01834
G1 X155.587 Y165.861 E.10573
G1 X155.866 Y165.861 E.01009
G1 E-1.2 F2400
;WIPE_START
G1 F3600
G1 X155.587 Y165.861
G1 X155.587 Y167.582
;WIPE_END
G1 X163.166 Y168.483 Z.6 F30000
G1 X169.201 Y169.201 Z.6
G1 Z.2
G1 E1.2 F2400
G1 F3600
G1 X162.447 Y169.201 E.24386
G1 X162.447 Y165.45 E.13543
G1 X169.201 Y165.45 E.24386
G1 X169.201 Y169.132 E.13296
G1 X166.988 Y168.79 F30000
G1 F3600
G1 X167.267 Y168.79 E.01009
G1 X167.267 Y165.861 E.10573
G1 X167.775 Y165.861 E.01834
G1 X167.775 Y168.79 E.10573
G1 X168.283 Y168.79 E.01834
G1 X168.283 Y165.861 E.10573
G1 X168.79 Y165.861 E.01828
G1 X168.79 Y168.79 E.10573
G1 X168.512 Y168.79 E.01003
G1 X162.858 Y166.521 F30000
G1 F3600
G1 X162.858 Y165.861 E.0238
G1 X163.205 Y165.861 E.0125
G1 X163.205 Y168.79 E.10573
G1 X163.712 Y168.79 E.01834
G1 X163.712 Y165.861 E.10573
G1 X164.22 Y165.861 E.01834
G1 X164.22 Y168.79 E.10573
G1 X164.728 Y168.79 E.01834
G1 X164.728 Y165.861 E.10573
G1 X165.236 Y165.861 E.01834
G1 X165.236 Y168.79 E.10573
G1 X165.744 Y168.79 E.01834
G1 X165.744 Y165.861 E.10573
G1 X166.252 Y165.861 E.01834
G1 X166.252 Y168.79 E.10573
G1 X166.76 Y168.79 E.01834
G1 X166.76 Y165.861 E.10573
G1 X167.039 Y165.861 E.01009
G1 E-1.2 F2400
;WIPE_START
G1 F3600
G1 X166.76 Y165.861
G1 X166.76 Y167.582
;WIPE_END
G1 X167.322 Y159.97 Z.6 F30000
G1 X169.201 Y134.55 Z.6
G1 Z.2
G1 E1.2 F2400
G1 F3600
G1 X162.447 Y134.55 E.24386
G1 X162.447 Y130.799 E.13543
G1 X169.201 Y130.799 E.24386
G1 X169.201 Y134.481 E.13296
G1 X166.988 Y134.139 F30000
G1 F3600
G1 X167.267 Y134.139 E.01009
G1 X167.267 Y131.21 E.10572
G1 X167.775 Y131.21 E.01834
G1 X167.775 Y134.139 E.10572
G1 X168.283 Y134.139 E.01834
G1 X168.283 Y131.21 E.10572
G1 X168.79 Y131.21 E.01828
G1 X168.79 Y134.139 E.10572
G1 X168.512 Y134.139 E.01003
G1 X162.858 Y131.87 F30000
G1 F3600
G1 X162.858 Y131.21 E.0238
G1 X163.205 Y131.21 E.0125
G1 X163.205 Y134.139 E.10572
G1 X163.712 Y134.139 E.01834
G1 X163.712 Y131.21 E.10572
G1 X164.22 Y131.21 E.01834
G1 X164.22 Y134.139 E.10572
G1 X164.728 Y134.139 E.01834
G1 X164.728 Y131.21 E.10572
G1 X165.236 Y131.21 E.01834
G1 X165.236 Y134.139 E.10572
G1 X165.744 Y134.139 E.01834
G1 X165.744 Y131.21 E.10572
G1 X166.252 Y131.21 E.01834
G1 X166.252 Y134.139 E.10572
G1 X166.76 Y134.139 E.01834
G1 X166.76 Y131.21 E.10572
G1 X167.039 Y131.21 E.01009
G1 E-1.2 F2400
;WIPE_START
G1 F3600
G1 X166.76 Y131.21
G1 X166.76 Y132.931
;WIPE_END
G1 X160.57 Y134.55 Z.6 F30000
G1 Z.2
G1 E1.2 F2400
G1 F3600
G1 X153.816 Y134.55 E.24386
G1 X153.816 Y130.799 E.13543
G1 X160.57 Y130.799 E.24386
G1 X160.57 Y134.481 E.13296
G1 X157.339 Y134.139 F30000
G1 F3600
G1 X157.618 Y134.139 E.01009
G1 X157.618 Y131.21 E.10572
G1 X158.126 Y131.21 E.01834
G1 X158.126 Y134.139 E.10572
G1 X158.634 Y134.139 E.01834
G1 X158.634 Y131.21 E.10572
G1 X159.142 Y131.21 E.01834
G1 X159.142 Y134.139 E.10572
G1 X159.649 Y134.139 E.01834
G1 X159.649 Y131.21 E.10572
G1 X160.158 Y131.21 E.01837
G1 X160.158 Y134.139 E.10572
G1 X159.878 Y134.139 E.01012
G1 X155.815 Y134.139 F30000
G1 F3600
G1 X156.094 Y134.139 E.01009
G1 X156.094 Y131.21 E.10572
G1 X156.602 Y131.21 E.01834
G1 X156.602 Y134.139 E.10572
G1 X157.11 Y134.139 E.01834
G1 X157.11 Y131.21 E.10572
G1 X157.389 Y131.21 E.01009
G1 X154.227 Y133.486 F30000
G1 F3600
G1 X154.227 Y134.139 E.02355
G1 X154.571 Y134.139 E.01241
G1 X154.571 Y131.21 E.10572
G1 X155.079 Y131.21 E.01834
G1 X155.079 Y134.139 E.10572
G1 X155.587 Y134.139 E.01834
G1 X155.587 Y131.21 E.10572
G1 X155.866 Y131.21 E.01009
G1 E-1.2 F2400
;WIPE_START
G1 F3600
G1 X155.587 Y131.21
G1 X155.587 Y132.931
;WIPE_END
G1 X149.061 Y134.55 Z.6 F30000
G1 Z.2
G1 E1.2 F2400
G1 F3600
G1 X142.307 Y134.55 E.24386
G1 X142.307 Y130.799 E.13543
G1 X149.061 Y130.799 E.24386
G1 X149.061 Y134.481 E.13296
G1 X145.658 Y134.139 F30000
G1 F3600
G1 X145.937 Y134.139 E.01009
G1 X145.937 Y131.21 E.10572
G1 X146.445 Y131.21 E.01834
G1 X146.445 Y134.139 E.10572
G1 X146.953 Y134.139 E.01834
G1 X146.953 Y131.21 E.10572
G1 X147.461 Y131.21 E.01834
G1 X147.461 Y134.139 E.10572
G1 X147.969 Y134.139 E.01834
G1 X147.969 Y131.21 E.10572
G1 X148.65 Y131.21 E.0246
G1 X148.65 Y134.139 E.10572
G1 X148.197 Y134.139 E.01635
G1 X144.134 Y134.139 F30000
G1 F3600
G1 X144.413 Y134.139 E.01009
G1 X144.413 Y131.21 E.10572
G1 X144.921 Y131.21 E.01834
G1 X144.921 Y134.139 E.10572
G1 X145.429 Y134.139 E.01834
G1 X145.429 Y131.21 E.10572
G1 X145.709 Y131.21 E.01009
G1 X144.185 Y131.21 F30000
G1 F3600
G1 X143.906 Y131.21 E.01009
G1 X143.906 Y134.139 E.10572
G1 X143.398 Y134.139 E.01834
G1 X143.398 Y131.21 E.10572
G1 X142.719 Y131.21 E.02451
G1 X142.719 Y134.139 E.10572
G1 X143.169 Y134.139 E.01626
G1 E-1.2 F2400
;WIPE_START
G1 F3600
G1 X142.719 Y134.139
G1 X142.719 Y132.589
;WIPE_END
G1 X137.553 Y134.55 Z.6 F30000
G1 Z.2
G1 E1.2 F2400
G1 F3600
G1 X127.922 Y134.55 E.34774
M73 P0 R33
G1 X127.922 Y130.799 E.13543
G1 X137.553 Y130.799 E.34774
G1 X137.553 Y134.481 E.13296
G1 X128.333 Y133.505 F30000
G1 F3600
G1 X128.333 Y134.139 E.02287
G1 X128.67 Y134.139 E.01214
G1 X128.67 Y131.21 E.10572
M73 P1 R33
G1 X129.177 Y131.21 E.01834
G1 X129.177 Y134.139 E.10572
G1 X129.685 Y134.139 E.01834
G1 X129.685 Y131.21 E.10572
G1 X130.193 Y131.21 E.01834
G1 X130.193 Y134.139 E.10572
G1 X130.701 Y134.139 E.01834
G1 X130.701 Y131.21 E.10572
G1 X131.209 Y131.21 E.01834
G1 X131.209 Y134.139 E.10572
G1 X131.717 Y134.139 E.01834
G1 X131.717 Y131.21 E.10572
G1 X132.225 Y131.21 E.01834
G1 X132.225 Y134.139 E.10572
G1 X132.733 Y134.139 E.01834
G1 X132.733 Y131.21 E.10572
G1 X133.24 Y131.21 E.01834
G1 X133.24 Y134.139 E.10572
G1 X133.748 Y134.139 E.01834
G1 X133.748 Y131.21 E.10572
G1 X134.256 Y131.21 E.01834
G1 X134.256 Y134.139 E.10572
G1 X134.764 Y134.139 E.01834
G1 X134.764 Y131.21 E.10572
G1 X135.272 Y131.21 E.01834
G1 X135.272 Y134.139 E.10572
G1 X135.78 Y134.139 E.01834
G1 X135.78 Y131.21 E.10572
G1 X136.288 Y131.21 E.01834
G1 X136.288 Y134.139 E.10572
G1 X136.795 Y134.139 E.01834
G1 X136.795 Y131.21 E.10572
G1 X137.142 Y131.21 E.0125
G1 X137.142 Y131.87 E.02381
G1 E-1.2 F2400
;WIPE_START
G1 F3600
G1 X137.142 Y131.21
G1 X136.795 Y131.21
G1 X136.795 Y132.205
;WIPE_END
G1 X143.726 Y135.402 Z.6 F30000
G1 X173.619 Y149.193 Z.6
G1 Z.2
G1 E1.2 F2400
;TYPE:Inner wall
G1 F3600
G1 X173.293 Y149.574 E.01811
G2 X172.673 Y151.43 I2.638 J1.913 E.07178
G1 X172.673 Y163.229 E.42599
G1 X126.215 Y163.229 E1.6774
G1 X126.215 Y150.979 E.44229
G2 X123.014 Y147.777 I-3.259 J.057 E.18073
G1 X121.648 Y147.777 E.04931
G1 X121.595 Y147.572 E.00765
G1 X121.793 Y147.461 E.00822
G1 X122.358 Y147.005 E.0262
G1 X122.837 Y146.461 E.0262
G1 X123.218 Y145.843 E.0262
G1 X123.488 Y145.17 E.0262
G1 X123.641 Y144.461 E.0262
G1 X123.672 Y143.736 E.0262
G1 X123.58 Y143.016 E.0262
G1 X123.367 Y142.322 E.0262
G1 X123.041 Y141.674 E.0262
G1 X122.609 Y141.091 E.0262
G1 X122.085 Y140.589 E.0262
G1 X121.484 Y140.183 E.0262
G1 X120.823 Y139.884 E.0262
G1 X120.589 Y139.823 E.00872
G1 X120.62 Y139.584 E.00871
G1 X123.024 Y139.584 E.08681
G1 X123.497 Y139.544 E.01712
G2 X126.184 Y136.771 I-.542 J-3.214 E.1492
G1 X172.682 Y136.771 E1.67886
G1 X172.708 Y137.102 E.01198
G2 X175.875 Y139.861 I3.255 J-.54 E.16436
G1 X178.471 Y139.861 E.09376
G1 X178.514 Y140.083 E.00817
G1 X178.16 Y140.225 E.01377
G1 X177.543 Y140.606 E.0262
G1 X176.998 Y141.085 E.0262
G1 X176.539 Y141.653 E.02637
G1 X176.182 Y142.301 E.0267
G1 X175.947 Y142.967 E.02551
G1 X175.824 Y143.682 E.0262
G1 X175.824 Y144.408 E.0262
G1 X175.947 Y145.123 E.0262
G1 X176.188 Y145.807 E.0262
G1 X176.542 Y146.44 E.0262
G1 X176.998 Y147.005 E.0262
G1 X177.546 Y147.487 E.02637
G1 X178.178 Y147.871 E.0267
G1 X178.514 Y148.007 E.01309
G1 X178.471 Y148.229 E.00817
G1 X175.875 Y148.229 E.09376
G2 X173.647 Y149.164 I.057 J3.259 E.08937
G1 E-1.2 F2400
;WIPE_START
G1 F3600
G1 X173.293 Y149.574
G1 X173.022 Y150.016
G1 X172.825 Y150.499
G1 X172.727 Y150.906
;WIPE_END
G1 X179.43 Y147.255 Z.6 F30000
G1 X183.803 Y144.873 Z.6
G1 Z.2
G1 E1.2 F2400
G1 F3600
G1 X183.687 Y145.317 E.01655
G1 X183.42 Y145.907 E.02339
G1 X183.058 Y146.444 E.02339
G1 X182.622 Y146.899 E.02275
G1 X182.092 Y147.295 E.02389
G1 X181.51 Y147.588 E.02352
G1 X180.891 Y147.778 E.02339
G1 X180.248 Y147.86 E.02339
G1 X179.601 Y147.833 E.02339
G1 X178.968 Y147.696 E.02339
G1 X178.383 Y147.461 E.02275
G1 X177.818 Y147.118 E.02389
G1 X177.329 Y146.687 E.02352
G1 X176.922 Y146.183 E.02339
G1 X176.606 Y145.618 E.02339
G1 X176.391 Y145.007 E.02339
G1 X176.281 Y144.369 E.02339
G1 X176.281 Y143.721 E.02339
G1 X176.391 Y143.082 E.02339
G1 X176.6 Y142.488 E.02275
G1 X176.92 Y141.909 E.02389
G1 X177.329 Y141.402 E.02352
G1 X177.815 Y140.974 E.02339
G1 X178.367 Y140.635 E.02339
G1 X178.968 Y140.393 E.02339
G1 X179.601 Y140.257 E.02339
G1 X180.231 Y140.23 E.02275
G1 X180.887 Y140.31 E.02389
G1 X181.51 Y140.501 E.02352
G1 X182.089 Y140.793 E.02339
G1 X182.609 Y141.178 E.02339
G1 X183.058 Y141.646 E.02339
G1 X183.42 Y142.182 E.02339
G1 X183.687 Y142.773 E.02339
G1 X183.85 Y143.399 E.02339
G1 X183.905 Y144.045 E.02339
G1 X183.85 Y144.69 E.02339
G1 X183.813 Y144.835 E.00539
G1 X183.4 Y144.594 F30000
G1 F3600
G1 X183.398 Y144.613 E.00067
G1 X183.255 Y145.164 E.02058
G1 X183.02 Y145.683 E.02058
G1 X182.701 Y146.156 E.02058
G1 X182.318 Y146.555 E.01998
G1 X181.85 Y146.905 E.02108
G1 X181.339 Y147.163 E.02066
G1 X180.794 Y147.33 E.02058
G1 X180.229 Y147.402 E.02058
G1 X179.659 Y147.378 E.02058
G1 X179.102 Y147.258 E.02058
G1 X178.589 Y147.051 E.01998
G1 X178.09 Y146.748 E.02108
G1 X177.66 Y146.37 E.02066
G1 X177.302 Y145.926 E.02058
G1 X177.024 Y145.429 E.02058
G1 X176.835 Y144.891 E.02058
G1 X176.738 Y144.33 E.02058
G1 X176.738 Y143.76 E.02058
G1 X176.835 Y143.198 E.02058
G1 X177.019 Y142.676 E.01998
G1 X177.301 Y142.165 E.02108
G1 X177.66 Y141.72 E.02066
G1 X178.088 Y141.343 E.02058
G1 X178.574 Y141.044 E.02058
G1 X179.102 Y140.832 E.02058
G1 X179.659 Y140.712 E.02058
G1 X180.212 Y140.688 E.01998
G1 X180.792 Y140.759 E.02108
G1 X181.339 Y140.927 E.02066
G1 X181.848 Y141.183 E.02058
G1 X182.306 Y141.522 E.02058
G1 X182.701 Y141.934 E.02058
G1 X183.02 Y142.406 E.02058
G1 X183.255 Y142.925 E.02058
G1 X183.398 Y143.477 E.02058
