; HEADER_BLOCK_START
; generated by Creality_Print V7.1.0.4414 on 2026-05-06 at 13:18:18
; total layer number: 116
; filament_density: 1.27
; filament_diameter: 1.75
; max_z_height: 23.20
; creality_uuid: 9c8a34e7-2a76-41b5-af46-4a66d1488f9a
; HEADER_BLOCK_END

; MINX = 35.39
; MINY = 70.70
; MINZ = 0.00
; MAXX = 263.34
; MAXY = 217.27
; MAXZ = 23.10

; multicolor_method = 0 
; THUMBNAIL_BLOCK_START

;
; THUMBNAIL_BLOCK_END

; THUMBNAIL_BLOCK_START

;
; THUMBNAIL_BLOCK_END

; external perimeters extrusion width = 0.42mm
; perimeters extrusion width = 0.45mm
; infill extrusion width = 0.45mm
; solid infill extrusion width = 0.42mm
; top infill extrusion width = 0.42mm
; first layer extrusion width = 0.50mm

; external perimeters extrusion width = 0.42mm
; perimeters extrusion width = 0.45mm
; infill extrusion width = 0.45mm
; solid infill extrusion width = 0.42mm
; top infill extrusion width = 0.42mm
; first layer extrusion width = 0.50mm

; EXECUTABLE_BLOCK_START
EXCLUDE_OBJECT_DEFINE NAME=Orelha_Fundição_Esquerda.STL_id_0_copy_0 CENTER=200.692,129.609 POLYGON=[[263.343,94.0504],[263.343,165.168],[242.96,185.55],[242.828,185.678],[242.63,185.861],[242.489,185.985],[242.286,186.157],[242.137,186.278],[241.931,186.437],[241.785,186.545],[241.623,186.66],[241.396,186.815],[241.262,186.901],[241.108,186.997],[240.85,187.15],[240.718,187.225],[240.559,187.311],[240.285,187.451],[240.156,187.514],[239.992,187.591],[239.703,187.717],[239.409,187.835],[239.24,187.898],[239.105,187.946],[238.812,188.044],[238.64,188.096],[238.495,188.138],[238.204,188.215],[238.052,188.252],[237.873,188.292],[237.585,188.35],[237.407,188.381],[237.243,188.407],[236.971,188.444],[236.698,188.475],[236.418,188.498],[236.236,188.509],[236.058,188.517],[235.783,188.523],[226.872,188.523],[140.404,182.213],[140.266,182.198],[140.131,182.175],[139.997,182.145],[139.844,182.102],[139.712,182.057],[139.584,182.005],[139.46,181.947],[139.328,181.875],[139.203,181.798],[139.091,181.72],[138.983,181.636],[138.877,181.545],[138.781,181.452],[138.687,181.351],[138.6,181.246],[138.51,181.125],[138.454,181.042],[138.4,180.956],[138.356,180.878],[138.308,180.784],[138.267,180.696],[138.231,180.613],[138.192,180.51],[138.163,180.423],[138.137,180.335],[138.114,180.246],[138.09,180.134],[138.074,180.044],[138.061,179.953],[138.049,179.838],[138.044,179.746],[138.041,179.654],[138.041,120.515],[138.048,120.353],[138.061,120.216],[138.085,120.057],[138.119,119.901],[138.162,119.748],[138.208,119.615],[138.267,119.473],[138.335,119.331],[138.412,119.193],[138.497,119.061],[138.589,118.935],[138.687,118.817],[138.797,118.701],[138.896,118.607],[139.014,118.507],[139.139,118.413],[139.261,118.333],[139.379,118.264],[226.542,70.6951],[239.987,70.6951],[263.343,94.0504]]
EXCLUDE_OBJECT_DEFINE NAME=Orelha_Fundição_Direita.STL_id_1_copy_0 CENTER=98.0389,158.355 POLYGON=[[159.352,147.01],[159.489,147.091],[159.628,147.185],[159.766,147.293],[159.885,147.399],[159.996,147.511],[160.114,147.646],[160.221,147.789],[160.313,147.93],[160.396,148.077],[160.464,148.219],[160.531,148.383],[160.582,148.537],[160.627,148.713],[160.657,148.871],[160.678,149.031],[160.689,149.215],[160.69,208.4],[160.681,208.584],[160.67,208.699],[160.657,208.79],[160.622,208.97],[160.6,209.059],[160.568,209.167],[160.539,209.256],[160.5,209.359],[160.423,209.53],[160.375,209.624],[160.33,209.702],[160.277,209.788],[160.226,209.864],[160.114,210.014],[160.043,210.097],[159.981,210.166],[159.918,210.23],[159.837,210.306],[159.695,210.425],[159.622,210.48],[159.536,210.539],[159.451,210.593],[159.372,210.639],[159.203,210.725],[159.104,210.769],[159.019,210.803],[158.844,210.861],[158.667,210.907],[158.487,210.94],[158.304,210.961],[71.8591,217.269],[62.9474,217.269],[62.5851,217.259],[62.3067,217.244],[61.9521,217.212],[61.6692,217.179],[61.3071,217.124],[60.9474,217.057],[60.5902,216.977],[60.4128,216.932],[60.1781,216.868],[59.973,216.807],[59.7988,216.751],[59.4533,216.631],[59.1123,216.498],[58.9436,216.427],[58.7387,216.337],[58.5276,216.238],[58.3636,216.157],[58.0401,215.986],[57.7227,215.804],[57.5664,215.709],[57.3932,215.598],[57.1833,215.458],[57.0332,215.354],[56.7386,215.136],[56.4445,214.903],[56.1687,214.667],[55.9028,214.424],[55.7058,214.232],[35.3881,193.914],[35.3881,122.796],[58.7434,99.4411],[72.189,99.4411],[159.352,147.01]]
M73 P0 R127
M106 S0
M106 P2 S0
; max_print_temp = 70,250
;TYPE:Custom
START_PRINT EXTRUDER_TEMP=250 BED_TEMP=70
T0
M204 S2000
M104 S250
G1 Z3 F600
M83
G92 E0
G1 Z1 F600
G90
G21
M83 ; use relative distances for extrusion
G1 E-1.2 F2400
G1 Z.2 F30000
M106 S0
;LAYER_CHANGE
;:0.2
;HEIGHT:0.2
;BEFORE_LAYER_CHANGE
;0.2
G92 E0
;TIME_ELAPSED:56.120438
;AFTER_LAYER_CHANGE
;0.2
;_SET_FAN_SPEED_CHANGING_LAYER
SET_VELOCITY_LIMIT ACCEL=1000 ACCEL_TO_DECEL=1000
SET_VELOCITY_LIMIT SQUARE_CORNER_VELOCITY=20
; OBJECT_ID: 117
; printing object Orelha Fundição Esquerda.STL id:0 copy 0
EXCLUDE_OBJECT_START NAME=Orelha_Fundição_Esquerda.STL_id_0_copy_0
G1 X229.475 Y152.511 Z.6 F30000
G1 Z.2
G1 E1.2 F2400
;TYPE:Inner wall
;WIDTH:0.5
G1 F3600
G1 X229.536 Y152.599 E.00385
G3 X225.429 Y150.555 I-3.659 J2.203 E.79406
G1 X225.619 Y150.539 E.00687
G3 X229.288 Y152.232 I.258 J4.263 E.15197
G1 X229.453 Y152.478 E.01072
G1 X228.969 Y152.578 F30000
G1 F3600
G1 X229.144 Y152.836 E.01126
G3 X225.477 Y151.009 I-3.268 J1.967 E.70906
G1 X225.645 Y150.995 E.00612
G3 X228.922 Y152.507 I.231 J3.807 E.13572
G1 X228.947 Y152.544 E.00161
G1 X228.493 Y152.707 F30000
G1 F3600
G1 X228.557 Y152.782 E.00358
G3 X225.524 Y151.464 I-2.681 J2.02 E.63668
G1 X225.672 Y151.452 E.00536
G3 X228.332 Y152.514 I.204 J3.351 E.10684
G1 X228.467 Y152.676 E.00761
G1 X227.834 Y152.667 F30000
;TYPE:Outer wall
G1 F3600
G1 X227.997 Y152.826 E.00819
G3 X225.572 Y151.919 I-2.121 J1.977 E.56092
G1 X225.699 Y151.908 E.0046
G3 X227.798 Y152.631 I.176 J2.894 E.08224
G1 X227.806 Y152.639 E.00041
G1 E-1.2 F2400
;WIPE_START
G1 F3600
G1 X227.997 Y152.826
G1 X228.191 Y153.058
G1 X228.361 Y153.309
G1 X228.492 Y153.554
G1 X228.6 Y153.81
G1 X228.683 Y154.076
G1 X228.739 Y154.349
G1 X228.741 Y154.363
;WIPE_END
G1 X228.699 Y146.731 Z.6 F30000
G1 X228.485 Y108.182 Z.6
G1 Z.2
G1 E1.2 F2400
;TYPE:Inner wall
G1 F3600
G1 X228.445 Y108.214 E.00184
G3 X225.392 Y100.558 I-2.57 J-3.412 E.56655
G1 X225.615 Y100.539 E.00808
G3 X228.763 Y107.949 I.26 J4.263 E.37937
G1 X228.515 Y108.156 E.01165
G1 X228.369 Y107.684 F30000
G1 F3600
G1 X228.17 Y107.849 E.00932
G3 X225.443 Y101.013 I-2.295 J-3.046 E.50591
G1 X225.643 Y100.995 E.00722
G3 X228.453 Y107.613 I.232 J3.807 E.33879
G1 X228.399 Y107.658 E.00255
G1 X228.194 Y107.227 F30000
G1 F3600
G1 X228.144 Y107.276 E.00256
G3 X225.495 Y101.467 I-2.269 J-2.474 E.45697
G1 X225.67 Y101.452 E.00635
G3 X228.389 Y107.027 I.204 J3.351 E.28558
G1 X228.222 Y107.198 E.00861
G1 X228.172 Y106.569 F30000
;TYPE:Outer wall
G1 F3600
G1 X228.046 Y106.724 E.00719
G3 X225.547 Y101.921 I-2.171 J-1.922 E.40564
G1 X225.698 Y101.908 E.00549
G3 X228.221 Y106.507 I.177 J2.894 E.23661
G1 X228.196 Y106.538 E.00144
G1 E-1.2 F2400
;WIPE_START
G1 F3600
G1 X228.046 Y106.724
G1 X227.835 Y106.941
G1 X227.62 Y107.119
G1 X227.389 Y107.276
G1 X227.124 Y107.42
G1 X226.868 Y107.528
G1 X226.602 Y107.61
G1 X226.561 Y107.619
;WIPE_END
G1 X219.371 Y110.179 Z.6 F30000
G1 X178.167 Y124.847 Z.6
G1 Z.2
G1 E1.2 F2400
;TYPE:Inner wall
G1 F3600
G1 X178.044 Y124.823 E.00452
G2 X177.58 Y124.787 I-.57 J4.317 E.01682
G1 X140.673 Y124.786 E1.33257
G3 X139.828 Y123.957 I-.026 J-.818 E.04777
G1 X139.828 Y120.575 E.12211
G3 X140.65 Y119.733 I.812 J-.03 E.04751
G1 X177.522 Y119.732 E1.33131
G2 X181.828 Y115.399 I-.061 J-4.367 E.24427
G1 X181.828 Y108.908 E.23437
G1 X227.171 Y72.482 E2.09998
G1 X239.247 Y72.482 E.43603
G1 X261.556 Y94.791 E1.13911
G1 X261.556 Y164.428 E2.51432
G1 X241.721 Y184.262 E1.0128
G3 X235.757 Y186.736 I-6.053 J-6.168 E.23889
G1 X226.994 Y186.736 E.3164
G1 X181.248 Y180.436 E1.6673
G1 X140.627 Y180.435 E1.46667
G3 X139.828 Y179.58 I.012 J-.812 E.04717
G1 X139.828 Y176.208 E.12177
G3 X140.677 Y175.382 I.817 J-.009 E.04779
G1 X177.495 Y175.382 E1.32937
G2 X181.828 Y171.068 I-.019 J-4.353 E.24476
G1 X181.828 Y129.085 E1.51586
G2 X178.532 Y124.916 I-4.354 J.056 E.20638
G1 X178.207 Y124.855 E.01195
G1 X178.495 Y125.383 F30000
G1 F3600
G1 X178.421 Y125.36 E.00279
G2 X177.568 Y125.244 I-.947 J3.78 E.03113
G1 X140.667 Y125.243 E1.33236
G3 X139.371 Y123.965 I-.018 J-1.277 E.07315
G1 X139.371 Y120.563 E.12283
G3 X140.638 Y119.275 I1.27 J-.018 E.07255
G1 X177.513 Y119.275 E1.33142
G2 X181.371 Y115.391 I-.05 J-3.908 E.21897
G1 X181.371 Y108.689 E.242
G1 X227.01 Y72.025 E2.1137
G1 X239.437 Y72.025 E.44868
G1 X262.013 Y94.601 E1.15278
G1 X262.013 Y164.617 E2.52799
G1 X242.039 Y184.591 E1.01989
G3 X235.762 Y187.193 I-6.372 J-6.499 E.25141
G1 X226.963 Y187.193 E.31771
G1 X181.217 Y180.893 E1.6673
G1 X140.615 Y180.892 E1.46597
G3 X139.371 Y179.589 I.024 J-1.268 E.07234
G1 X139.371 Y176.201 E.12234
G3 X140.67 Y174.925 I1.275 J-.001 E.07318
G1 X177.487 Y174.925 E1.32934
G2 X181.371 Y171.061 I-.011 J-3.895 E.21937
G1 X181.371 Y129.096 E1.51522
G2 X178.841 Y125.491 I-3.897 J.044 E.16899
G1 X178.533 Y125.395 E.01167
G1 X178.818 Y125.977 F30000
G1 F3600
G1 X178.31 Y125.803 E.01938
G2 X177.556 Y125.701 I-.835 J3.336 E.02753
G1 X140.661 Y125.7 E1.33214
G3 X138.914 Y123.973 I-.01 J-1.737 E.09853
G1 X138.914 Y120.551 E.12355
G3 X140.626 Y118.818 I1.728 J-.005 E.0976
G1 X177.504 Y118.818 E1.33153
G2 X180.914 Y115.383 I-.04 J-3.45 E.19368
G1 X180.914 Y108.47 E.24962
G1 X226.849 Y71.568 E2.12742
G1 X239.626 Y71.568 E.46132
G1 X239.724 Y71.666 E.00501
G1 X262.47 Y94.412 E1.16144
G1 X262.47 Y164.806 E2.54166
G1 X242.357 Y184.919 E1.02697
G3 X235.767 Y187.65 I-6.692 J-6.83 E.26394
G1 X226.932 Y187.65 E.31903
G1 X181.185 Y181.35 E1.6673
G1 X140.603 Y181.35 E1.46527
G3 X138.914 Y179.598 I.036 J-1.725 E.0975
G1 X138.914 Y176.194 E.12292
G3 X140.663 Y174.468 I1.734 J.008 E.09856
G1 X177.479 Y174.468 E1.3293
G2 X180.914 Y171.054 I-.003 J-3.438 E.19399
G1 X180.914 Y129.107 E1.51457
G2 X178.857 Y125.99 I-3.439 J.033 E.14251
G1 X178.856 Y125.99 E.00004
G1 X179.138 Y126.669 F30000
;TYPE:Outer wall
G1 F3600
G1 X178.957 Y126.552 E.00777
G2 X177.544 Y126.158 I-1.482 J2.587 E.05351
G1 X140.655 Y126.158 E1.33193
G3 X138.457 Y123.981 I-.001 J-2.197 E.1239
G1 X138.457 Y120.539 E.12426
G3 X140.614 Y118.361 I2.186 J.008 E.12265
G1 X177.495 Y118.361 E1.33164
G2 X180.457 Y115.375 I-.029 J-2.991 E.16839
G1 X180.457 Y108.251 E.25724
G1 X226.688 Y71.111 E2.14114
G1 X239.815 Y71.111 E.47396
G1 X240.047 Y71.343 E.01184
G1 X262.927 Y94.223 E1.16828
G1 X262.927 Y164.996 E2.55534
G1 X242.675 Y185.247 E1.03406
G3 X235.773 Y188.107 I-7.011 J-7.16 E.27646
G1 X226.9 Y188.108 E.32034
G1 X181.154 Y181.808 E1.6673
G1 X140.591 Y181.807 E1.46457
G3 X138.457 Y179.607 I.048 J-2.182 E.12267
G1 X138.457 Y176.187 E.1235
G3 X140.656 Y174.011 I2.193 J.018 E.12395
G1 X177.471 Y174.011 E1.32926
G2 X180.457 Y171.047 I.005 J-2.981 E.16861
G1 X180.457 Y129.118 E1.51392
G2 X179.244 Y126.739 I-2.982 J.022 E.09996
G1 X179.172 Y126.691 E.00313
G1 E-1.2 F2400
;WIPE_START
G1 F3600
G1 X178.957 Y126.552
G1 X178.674 Y126.409
G1 X178.199 Y126.248
G1 X177.862 Y126.183
G1 X177.544 Y126.158
G1 X177.28 Y126.158
;WIPE_END
G1 X184.442 Y123.518 Z.6 F30000
G1 X261.419 Y95.139 Z.6
G1 Z.2
G1 E1.2 F2400
;TYPE:Bottom surface
;WIDTH:0.500815
G1 F3600
G1 X239.105 Y72.825 E1.14142
G1 X238.457 Y72.825 E.02342
G1 X261.213 Y95.581 E1.16402
G1 X261.213 Y96.228 E.02342
G1 X237.81 Y72.825 E1.19715
G1 X237.162 Y72.825 E.02342
G1 X261.213 Y96.876 E1.23027
G1 X261.213 Y97.524 E.02342
G1 X236.514 Y72.825 E1.2634
G1 X235.867 Y72.825 E.02342
G1 X261.213 Y98.171 E1.29652
G1 X261.213 Y98.819 E.02342
G1 X235.219 Y72.825 E1.32965
G1 X234.572 Y72.825 E.02342
G1 X261.213 Y99.466 E1.36277
G1 X261.213 Y100.114 E.02342
G1 X233.924 Y72.825 E1.39589
G1 X233.277 Y72.825 E.02342
G1 X261.213 Y100.761 E1.42902
G1 X261.213 Y101.409 E.02342
G1 X232.629 Y72.825 E1.46214
G1 X231.981 Y72.825 E.02342
G1 X261.213 Y102.056 E1.49527
G1 X261.213 Y102.704 E.02342
G1 X231.334 Y72.825 E1.52839
G1 X230.686 Y72.825 E.02342
G1 X261.213 Y103.352 E1.56152
G1 X261.213 Y103.999 E.02342
G1 X230.039 Y72.825 E1.59464
G1 X229.391 Y72.825 E.02342
G1 X261.213 Y104.647 E1.62777
G1 X261.213 Y105.294 E.02342
G1 X228.744 Y72.825 E1.66089
G1 X228.096 Y72.825 E.02342
G1 X261.213 Y105.942 E1.69402
G1 X261.213 Y106.589 E.02342
G1 X227.449 Y72.825 E1.72714
G1 X227.291 Y72.825 E.00568
G1 X227.019 Y73.043 E.01262
G1 X261.213 Y107.237 E1.74909
G1 X261.213 Y107.884 E.02342
G1 X226.66 Y73.332 E1.76746
G1 X226.301 Y73.62 E.01666
G1 X261.213 Y108.532 E1.78582
G1 X261.213 Y109.18 E.02342
G1 X225.942 Y73.909 E1.80419
G1 X225.583 Y74.197 E.01666
G1 X261.213 Y109.827 E1.82256
G1 X261.213 Y110.475 E.02342
G1 X225.224 Y74.486 E1.84093
G1 X224.865 Y74.774 E.01666
G1 X261.213 Y111.122 E1.8593
G1 X261.213 Y111.77 E.02342
G1 X224.506 Y75.063 E1.87767
G1 X224.147 Y75.351 E.01666
G1 X261.213 Y112.417 E1.89603
G1 X261.213 Y113.065 E.02342
G1 X223.788 Y75.64 E1.9144
G1 X223.429 Y75.928 E.01666
G1 X261.213 Y113.713 E1.93277
G1 X261.213 Y114.36 E.02342
G1 X223.069 Y76.217 E1.95114
G1 X222.71 Y76.505 E.01666
G1 X261.213 Y115.008 E1.96951
G1 X261.213 Y115.655 E.02342
G1 X222.351 Y76.794 E1.98788
G1 X221.992 Y77.082 E.01666
G1 X261.213 Y116.303 E2.00625
G1 X261.213 Y116.95 E.02342
G1 X221.633 Y77.371 E2.02461
G1 X221.274 Y77.659 E.01666
G1 X261.213 Y117.598 E2.04298
G1 X261.213 Y118.245 E.02342
G1 X220.915 Y77.947 E2.06135
G1 X220.556 Y78.236 E.01666
G1 X261.213 Y118.893 E2.07972
G1 X261.213 Y119.541 E.02342
G1 X220.197 Y78.524 E2.09809
G1 X219.838 Y78.813 E.01666
G1 X261.213 Y120.188 E2.11646
G1 X261.213 Y120.836 E.02342
G1 X219.479 Y79.101 E2.13482
G1 X219.12 Y79.39 E.01666
G1 X261.213 Y121.483 E2.15319
G1 X261.213 Y122.131 E.02342
G1 X218.76 Y79.678 E2.17156
G1 X218.401 Y79.967 E.01666
G1 X261.213 Y122.778 E2.18993
G1 X261.213 Y123.426 E.02342
G1 X218.042 Y80.255 E2.2083
G1 X217.683 Y80.544 E.01666
G1 X261.213 Y124.074 E2.22667
G1 X261.213 Y124.721 E.02342
G1 X217.324 Y80.832 E2.24503
G1 X216.965 Y81.121 E.01666
G1 X261.213 Y125.369 E2.2634
G1 X261.213 Y126.016 E.02342
G1 X216.606 Y81.409 E2.28177
G1 X216.247 Y81.698 E.01666
G1 X261.213 Y126.664 E2.30014
G1 X261.213 Y127.311 E.02342
G1 X215.888 Y81.986 E2.31851
G1 X215.529 Y82.275 E.01666
G1 X261.213 Y127.959 E2.33688
G1 X261.213 Y128.606 E.02342
G1 X215.17 Y82.563 E2.35524
G1 X214.81 Y82.852 E.01666
G1 X261.213 Y129.254 E2.37361
G1 X261.213 Y129.902 E.02342
G1 X214.451 Y83.14 E2.39198
G1 X214.092 Y83.428 E.01666
G1 X261.213 Y130.549 E2.41035
G1 X261.213 Y131.197 E.02342
G1 X213.733 Y83.717 E2.42872
G1 X213.374 Y84.005 E.01666
G1 X261.213 Y131.844 E2.44709
G1 X261.213 Y132.492 E.02342
G1 X213.015 Y84.294 E2.46545
G1 X212.656 Y84.582 E.01666
G1 X261.213 Y133.139 E2.48382
G1 X261.213 Y133.787 E.02342
G1 X212.297 Y84.871 E2.50219
G1 X211.938 Y85.159 E.01666
G1 X227.152 Y100.374 E.77826
G2 X226.348 Y100.217 I-1.288 J4.479 E.02966
G1 X211.579 Y85.448 E.75551
G1 X211.22 Y85.736 E.01666
G1 X225.679 Y100.196 E.73964
G2 X225.092 Y100.256 I.513 J7.858 E.02135
G1 X210.86 Y86.025 E.72797
G1 X210.501 Y86.313 E.01666
G1 X224.569 Y100.381 E.71959
G2 X224.093 Y100.552 I.651 J2.55 E.01833
G1 X210.142 Y86.602 E.71362
G1 X209.783 Y86.89 E.01666
G1 X223.656 Y100.763 E.70965
G2 X223.255 Y101.01 I1.034 J2.129 E.01705
G1 X209.424 Y87.179 E.70751
G1 X209.065 Y87.467 E.01666
G1 X222.888 Y101.291 E.70711
G2 X222.555 Y101.605 I1.524 J1.954 E.01659
G1 X208.706 Y87.756 E.70841
G1 X208.347 Y88.044 E.01666
G1 X222.253 Y101.95 E.71135
G2 X221.985 Y102.33 I1.767 J1.534 E.01683
G1 X207.988 Y88.332 E.71599
G1 X207.629 Y88.621 E.01666
M73 P0 R126
G1 X221.75 Y102.743 E.72236
G2 X221.553 Y103.193 I2.208 J1.234 E.01781
G1 X207.27 Y88.909 E.73065
G1 X206.91 Y89.198 E.01666
G1 X221.399 Y103.686 E.74112
G2 X221.3 Y104.234 I5.747 J1.325 E.02016
G1 X206.551 Y89.486 E.75441
G1 X206.192 Y89.775 E.01666
G1 X221.266 Y104.849 E.77108
G2 X221.323 Y105.553 I5.728 J-.103 E.02555
G1 X205.687 Y89.917 E.7998
